X:016
T: Bucks of Tipperary
N: O'Farrell's Pocket Companion v.1 (Sky ed. p.24)
D: "O"Sullivan Meets O'Farrell" track 11b
N: "Irish"
M: 6/8
L: 1/8
R: jig
Q: 320
K: D
A|dfd B2B| AGF A2B|ded def| g3 f2e|
dfd B2B| AGF A2B|d2g fge| d3 d2 :|
A|d2g faf|gbg faf| d2d faf|g3 f2e|
dfg aff|bgg agf|edB BAB |g3 f2e :|
